code/public/images/YANISGREK_pattern.svg

<svg xmlns="http://www.w3.org/2000/svg" width="731" height="76" fill="none"><path fill="url(#a)" d="M65.856 2h22.032l-33.6 42.816V74h-19.92V45.056L.624 2h22.032l21.6 27.552zm99.139 72h-21.216l-6-13.872h-37.2l-6 13.872H73.315l32.784-72h26.16zm-45.84-56.832-11.664 26.976h23.376zM232.39 51.44V2h19.296v72H226.63l-35.52-50.544V74h-19.344V2h25.776zM265.047 74V2h19.92v72zm50.321-23.616q.672 4.56 5.472 7.2 4.8 2.592 12.672 2.592 7.392 0 11.52-1.92 4.176-1.92 4.176-5.472 0-1.92-1.056-3.168-1.056-1.296-3.6-2.112-2.496-.816-6.96-1.248l-13.344-1.248q-14.736-1.344-21.552-6.624-6.768-5.328-6.768-14.784 0-7.344 4.32-12.528 4.32-5.232 12.192-7.92Q320.36.416 331.016.416q10.272 0 18.384 2.976t12.816 8.352q4.752 5.376 5.232 12.432h-20.256q-.528-3.888-4.896-6.096-4.32-2.256-11.664-2.256-6.816 0-10.704 1.824-3.84 1.824-3.84 5.184 0 2.64 2.4 4.128 2.4 1.44 8.4 2.064l14.352 1.392q10.224.96 16.368 3.312t8.928 6.432 2.784 10.32q0 7.488-4.512 13.2-4.512 5.664-12.72 8.784t-18.96 3.12q-11.088 0-19.632-3.12-8.544-3.168-13.344-8.88t-5.04-13.2zm130.065-13.632h38.16V74h-14.064l-.96-9.648q-4.656 5.28-11.712 8.256-7.008 2.976-16.272 2.976-11.376 0-20.64-4.416-9.264-4.464-14.64-12.96T399.929 38q0-11.76 5.424-20.208 5.424-8.496 14.88-12.912Q429.737.416 441.689.416q11.568 0 20.304 3.6 8.784 3.6 14.064 9.984 5.328 6.384 6.912 14.736h-20.064q-.96-3.6-3.888-6.24-2.88-2.64-7.344-4.032-4.416-1.44-9.936-1.44-6.768 0-11.664 2.4-4.896 2.352-7.536 7.056T419.897 38q0 6.912 2.832 11.712 2.88 4.8 8.16 7.248 5.328 2.448 12.624 2.448 7.392 0 12.96-2.208 5.616-2.256 8.64-6.432h-19.68zM545.117 74l-19.296-25.92h-10.416V74h-19.92V2h42.768q8.16 0 14.352 2.88 6.24 2.88 9.648 8.16 3.456 5.232 3.456 12.096 0 5.424-2.208 9.888-2.208 4.416-6.336 7.488-4.08 3.072-9.648 4.464L568.205 74zm-29.712-57.216v16.704h20.112q4.704 0 7.392-2.208t2.688-6.144-2.688-6.144q-2.64-2.208-7.392-2.208zm82.858 28.464-2.016 12.624h45.6V74h-66.96l5.472-36-5.472-36h66.48v16.128h-45.12l2.016 12.624h40.32v14.496zm106.843-12.96L730.594 74h-22.608L692.53 47.792 671.266 74h-18V2h19.824v45.312L708.562 2h21.072z" opacity=".1"/><defs><linearGradient id="a" x1="0" x2="730.87" y1="-.14" y2="74.39" gradientUnits="userSpaceOnUse"><stop stop-color="silver"/><stop offset="1" stop-color="#fff"/></linearGradient></defs></svg>

<svg width="731" height="76" viewBox="0 0 731 76" fill="none" xmlns="http://www.w3.org/2000/svg">
<path opacity="0.1" d="M65.856 1.99999H87.888L54.288 44.816V74H34.368V45.056L0.624 1.99999H22.656L44.256 29.552L65.856 1.99999ZM164.995 74H143.779L137.779 60.128H100.579L94.5788 74H73.3148L106.099 1.99999H132.259L164.995 74ZM119.155 17.168L107.491 44.144H130.867L119.155 17.168ZM232.39 51.44V1.99999H251.686V74H226.63L191.11 23.456V74H171.766V1.99999H197.542L232.39 51.44ZM265.047 74V1.99999H284.967V74H265.047ZM315.368 50.384C315.816 53.424 317.64 55.824 320.84 57.584C324.04 59.312 328.264 60.176 333.512 60.176C338.44 60.176 342.28 59.536 345.032 58.256C347.816 56.976 349.208 55.152 349.208 52.784C349.208 51.504 348.856 50.448 348.152 49.616C347.448 48.752 346.248 48.048 344.552 47.504C342.888 46.96 340.568 46.544 337.592 46.256L324.248 45.008C314.424 44.112 307.24 41.904 302.696 38.384C298.184 34.832 295.928 29.904 295.928 23.6C295.928 18.704 297.368 14.528 300.248 11.072C303.128 7.584 307.192 4.944 312.44 3.152C317.72 1.328 323.912 0.415995 331.016 0.415995C337.864 0.415995 343.992 1.408 349.4 3.392C354.808 5.376 359.08 8.16 362.216 11.744C365.384 15.328 367.128 19.472 367.448 24.176H347.192C346.84 21.584 345.208 19.552 342.296 18.08C339.416 16.576 335.528 15.824 330.632 15.824C326.088 15.824 322.52 16.432 319.928 17.648C317.368 18.864 316.088 20.592 316.088 22.832C316.088 24.592 316.888 25.968 318.488 26.96C320.088 27.92 322.888 28.608 326.888 29.024L341.24 30.416C348.056 31.056 353.512 32.16 357.608 33.728C361.704 35.296 364.68 37.44 366.536 40.16C368.392 42.88 369.32 46.32 369.32 50.48C369.32 55.472 367.816 59.872 364.808 63.68C361.8 67.456 357.56 70.384 352.088 72.464C346.616 74.544 340.296 75.584 333.128 75.584C325.736 75.584 319.192 74.544 313.496 72.464C307.8 70.352 303.352 67.392 300.152 63.584C296.952 59.776 295.272 55.376 295.112 50.384H315.368ZM445.433 36.752H483.593V74H469.529L468.569 64.352C465.465 67.872 461.561 70.624 456.857 72.608C452.185 74.592 446.761 75.584 440.585 75.584C433.001 75.584 426.121 74.112 419.945 71.168C413.769 68.192 408.889 63.872 405.305 58.208C401.721 52.544 399.929 45.808 399.929 38C399.929 30.16 401.737 23.424 405.353 17.792C408.969 12.128 413.929 7.824 420.233 4.88C426.569 1.904 433.721 0.415995 441.689 0.415995C449.401 0.415995 456.169 1.616 461.993 4.016C467.849 6.416 472.537 9.744 476.057 14C479.609 18.256 481.913 23.168 482.969 28.736H462.905C462.265 26.336 460.969 24.256 459.017 22.496C457.097 20.736 454.649 19.392 451.673 18.464C448.729 17.504 445.417 17.024 441.737 17.024C437.225 17.024 433.337 17.824 430.073 19.424C426.809 20.992 424.297 23.344 422.537 26.48C420.777 29.616 419.897 33.456 419.897 38C419.897 42.608 420.841 46.512 422.729 49.712C424.649 52.912 427.369 55.328 430.889 56.96C434.441 58.592 438.649 59.408 443.513 59.408C448.441 59.408 452.761 58.672 456.473 57.2C460.217 55.696 463.097 53.552 465.113 50.768H445.433V36.752ZM545.117 74L525.821 48.08H515.405V74H495.485V1.99999H538.253C543.693 1.99999 548.477 2.96 552.605 4.88C556.765 6.8 559.981 9.51999 562.253 13.04C564.557 16.528 565.709 20.56 565.709 25.136C565.709 28.752 564.973 32.048 563.501 35.024C562.029 37.968 559.917 40.464 557.165 42.512C554.445 44.56 551.229 46.048 547.517 46.976L568.205 74H545.117ZM515.405 16.784V33.488H535.517C538.653 33.488 541.117 32.752 542.909 31.28C544.701 29.808 545.597 27.76 545.597 25.136C545.597 22.512 544.701 20.464 542.909 18.992C541.149 17.52 538.685 16.784 535.517 16.784H515.405ZM598.263 45.248L596.247 57.872H641.847V74H574.887L580.359 38L574.887 1.99999H641.367V18.128H596.247L598.263 30.752H638.583V45.248H598.263ZM705.106 32.288L730.594 74H707.986L692.53 47.792L671.266 74H653.266V1.99999H673.09V47.312L708.562 1.99999H729.634L705.106 32.288Z" fill="url(#paint0_linear_463_2101)"/>
<defs>
<linearGradient id="paint0_linear_463_2101" x1="-1.76876e-07" y1="-0.139998" x2="730.87" y2="74.3902" gradientUnits="userSpaceOnUse">
<stop stop-color="#C0C0C0"/>
<stop offset="1" stop-color="white"/>
</linearGradient>
</defs>
</svg>
